packages/match-icons/sendgrid/svg/chart.svg

<svg fill="none" height="32" viewBox="0 0 32 32" width="32" xmlns="http://www.w3.org/2000/svg"><g stroke="#394762" stroke-linecap="round" stroke-linejoin="round" stroke-width="1.7"><path d="m1 31h30"/><path d="m8 23h-4c-.26522 0-.51957.1054-.70711.2929-.18753.1875-.29289.4419-.29289.7071v7h6v-7c0-.2652-.10536-.5196-.29289-.7071-.18754-.1875-.44189-.2929-.70711-.2929z"/><path d="m18 13h-4c-.2652 0-.5196.1054-.7071.2929s-.2929.4419-.2929.7071v17h6v-17c0-.2652-.1054-.5196-.2929-.7071s-.4419-.2929-.7071-.2929z"/><path d="m28 19h-4c-.2652 0-.5196.1054-.7071.2929s-.2929.4419-.2929.7071v11h6v-11c0-.2652-.1054-.5196-.2929-.7071s-.4419-.2929-.7071-.2929z"/><path d="m1 14c0 .5304.21071 1.0391.58579 1.4142.37507.3751.88378.5858 1.41421.5858s1.03914-.2107 1.41421-.5858c.37508-.3751.58579-.8838.58579-1.4142s-.21071-1.0391-.58579-1.4142c-.37507-.3751-.88378-.5858-1.41421-.5858s-1.03914.2107-1.41421.5858c-.37508.3751-.58579.8838-.58579 1.4142z"/><path d="m10 3c0 .53043.2107 1.03914.5858 1.41421.3751.37508.8838.58579 1.4142.58579s1.0391-.21071 1.4142-.58579c.3751-.37507.5858-.88378.5858-1.41421s-.2107-1.03914-.5858-1.41421c-.3751-.37508-.8838-.58579-1.4142-.58579s-1.0391.21071-1.4142.58579c-.3751.37507-.5858.88378-.5858 1.41421z"/><path d="m27 8c0 .53043.2107 1.03914.5858 1.41421.3751.37508.8838.58579 1.4142.58579s1.0391-.21071 1.4142-.58579c.3751-.37507.5858-.88378.5858-1.41421s-.2107-1.03914-.5858-1.41421c-.3751-.37508-.8838-.58579-1.4142-.58579s-1.0391.21071-1.4142.58579c-.3751.37507-.5858.88378-.5858 1.41421z"/><path d="m4.26672 12.452 6.46668-7.90403"/><path d="m27.0814 7.43463-13.1627-3.87067"/></g></svg>

<svg width="32" height="32" viewBox="0 0 32 32" fill="none" xmlns="http://www.w3.org/2000/svg">
<path d="M1 31H31" stroke="#394762" stroke-width="1.7" stroke-linecap="round" stroke-linejoin="round"/>
<path d="M8 23H4C3.73478 23 3.48043 23.1054 3.29289 23.2929C3.10536 23.4804 3 23.7348 3 24V31H9V24C9 23.7348 8.89464 23.4804 8.70711 23.2929C8.51957 23.1054 8.26522 23 8 23Z" stroke="#394762" stroke-width="1.7" stroke-linecap="round" stroke-linejoin="round"/>
<path d="M18 13H14C13.7348 13 13.4804 13.1054 13.2929 13.2929C13.1054 13.4804 13 13.7348 13 14V31H19V14C19 13.7348 18.8946 13.4804 18.7071 13.2929C18.5196 13.1054 18.2652 13 18 13Z" stroke="#394762" stroke-width="1.7" stroke-linecap="round" stroke-linejoin="round"/>
<path d="M28 19H24C23.7348 19 23.4804 19.1054 23.2929 19.2929C23.1054 19.4804 23 19.7348 23 20V31H29V20C29 19.7348 28.8946 19.4804 28.7071 19.2929C28.5196 19.1054 28.2652 19 28 19Z" stroke="#394762" stroke-width="1.7" stroke-linecap="round" stroke-linejoin="round"/>
<path d="M1 14C1 14.5304 1.21071 15.0391 1.58579 15.4142C1.96086 15.7893 2.46957 16 3 16C3.53043 16 4.03914 15.7893 4.41421 15.4142C4.78929 15.0391 5 14.5304 5 14C5 13.4696 4.78929 12.9609 4.41421 12.5858C4.03914 12.2107 3.53043 12 3 12C2.46957 12 1.96086 12.2107 1.58579 12.5858C1.21071 12.9609 1 13.4696 1 14V14Z" stroke="#394762" stroke-width="1.7" stroke-linecap="round" stroke-linejoin="round"/>
<path d="M10 3C10 3.53043 10.2107 4.03914 10.5858 4.41421C10.9609 4.78929 11.4696 5 12 5C12.5304 5 13.0391 4.78929 13.4142 4.41421C13.7893 4.03914 14 3.53043 14 3C14 2.46957 13.7893 1.96086 13.4142 1.58579C13.0391 1.21071 12.5304 1 12 1C11.4696 1 10.9609 1.21071 10.5858 1.58579C10.2107 1.96086 10 2.46957 10 3V3Z" stroke="#394762" stroke-width="1.7" stroke-linecap="round" stroke-linejoin="round"/>
<path d="M27 8C27 8.53043 27.2107 9.03914 27.5858 9.41421C27.9609 9.78929 28.4696 10 29 10C29.5304 10 30.0391 9.78929 30.4142 9.41421C30.7893 9.03914 31 8.53043 31 8C31 7.46957 30.7893 6.96086 30.4142 6.58579C30.0391 6.21071 29.5304 6 29 6C28.4696 6 27.9609 6.21071 27.5858 6.58579C27.2107 6.96086 27 7.46957 27 8Z" stroke="#394762" stroke-width="1.7" stroke-linecap="round" stroke-linejoin="round"/>
<path d="M4.26672 12.452L10.7334 4.54797" stroke="#394762" stroke-width="1.7" stroke-linecap="round" stroke-linejoin="round"/>
<path d="M27.0814 7.43463L13.9187 3.56396" stroke="#394762" stroke-width="1.7" stroke-linecap="round" stroke-linejoin="round"/>
</svg>
